icons/fiber/fiber-line.svg

<?xml version="1.0" encoding="UTF-8"?>
<svg xmlns="http://www.w3.org/2000/svg" xmlns:xlink="http://www.w3.org/1999/xlink" width="128px" height="128px" viewBox="0 0 128 128" version="1.1">
<g id="surface1">
<path style=" stroke:none;fill-rule:nonzero;fill:rgb(0%,67.45098%,84.313725%);fill-opacity:1;" d="M 62.773438 47.679688 C 60.554688 47.679688 58.542969 49.316406 58.210938 51.429688 L 58.210938 51.4375 C 57.898438 53.554688 59.621094 55.347656 61.847656 55.347656 C 64.070312 55.347656 66.105469 53.699219 66.386719 51.574219 C 66.667969 49.453125 64.988281 47.679688 62.773438 47.679688 Z M 62.773438 48.667969 C 64.488281 48.667969 65.613281 49.878906 65.40625 51.441406 C 65.199219 53 63.570312 54.359375 61.847656 54.359375 C 60.128906 54.359375 58.964844 53.121094 59.1875 51.585938 C 59.433594 50.015625 61.054688 48.664062 62.773438 48.664062 Z M 37.105469 49.609375 L 37.035156 50.019531 L 32.078125 79.902344 L 40.160156 79.902344 L 42.105469 68.128906 L 53.75 68.128906 L 54.890625 61.371094 L 43.242188 61.371094 L 44.054688 56.347656 L 56.96875 56.347656 L 58.109375 49.609375 Z M 68.058594 49.609375 L 67.988281 50.019531 L 63.035156 79.898438 L 70.960938 79.898438 L 71.40625 77.140625 C 72.273438 78.839844 74.023438 80.210938 76.878906 80.210938 C 81.863281 80.210938 86.46875 76.308594 87.871094 69.046875 C 87.445312 72.351562 87.96875 75.152344 89.5625 77.105469 C 91.269531 79.195312 94.042969 80.316406 97.59375 80.320312 C 103.542969 80.320312 107.96875 77.40625 109.601562 72.882812 L 109.832031 72.242188 L 102.464844 72.027344 L 102.320312 72.296875 C 101.617188 73.59375 100.238281 74.28125 98.5625 74.28125 C 97.292969 74.28125 96.453125 73.921875 95.953125 73.304688 C 95.472656 72.71875 95.285156 71.8125 95.445312 70.601562 L 110.058594 70.601562 L 110.398438 68.441406 L 110.398438 68.4375 C 111.011719 64.730469 110.371094 61.765625 108.703125 59.730469 C 107.03125 57.695312 104.378906 56.652344 101.152344 56.652344 C 94.492188 56.652344 89.40625 61.199219 88.054688 67.886719 C 88.539062 64.277344 88.050781 61.46875 86.738281 59.597656 C 85.339844 57.605469 83.121094 56.648438 80.699219 56.648438 C 77.882812 56.648438 75.804688 57.925781 74.433594 59.480469 L 76.050781 49.609375 Z M 37.945312 50.597656 L 56.941406 50.597656 L 56.132812 55.359375 L 43.210938 55.359375 L 42.078125 62.359375 L 53.722656 62.359375 L 52.917969 67.140625 L 41.269531 67.140625 L 39.320312 78.914062 L 33.242188 78.914062 Z M 68.898438 50.597656 L 74.886719 50.597656 L 73.074219 61.683594 L 74.09375 61.683594 L 74.234375 61.433594 C 75.308594 59.535156 77.414062 57.636719 80.699219 57.636719 C 82.867188 57.636719 84.722656 58.449219 85.929688 60.164062 C 87.132812 61.878906 87.695312 64.558594 87.0625 68.351562 C 85.859375 75.664062 81.484375 79.222656 76.878906 79.222656 C 73.742188 79.222656 72.335938 77.574219 71.863281 75.71875 L 71.769531 75.347656 L 70.691406 75.347656 L 70.121094 78.910156 L 64.203125 78.910156 Z M 125.519531 56.636719 C 123.496094 56.636719 121.636719 57.613281 120.261719 59.464844 L 120.6875 56.933594 L 112.894531 56.933594 L 109.070312 79.898438 L 117.066406 79.898438 L 119.113281 67.554688 C 119.53125 65.160156 121.464844 63.585938 123.703125 63.585938 C 124.527344 63.585938 125.722656 63.738281 126.230469 63.929688 L 126.792969 64.140625 L 128 57 L 127.554688 56.890625 C 126.890625 56.726562 126.207031 56.640625 125.523438 56.636719 Z M 57.429688 56.933594 L 57.359375 57.347656 L 53.609375 79.898438 L 61.609375 79.898438 L 65.429688 56.933594 Z M 10.113281 57.386719 L 9.96875 57.59375 L 7.589844 60.964844 L 33.195312 60.953125 L 33.78125 57.386719 Z M 125.515625 57.628906 L 125.519531 57.628906 C 125.972656 57.628906 126.417969 57.714844 126.867188 57.796875 L 125.996094 62.921875 C 125.269531 62.742188 124.4375 62.597656 123.703125 62.597656 C 120.992188 62.597656 118.632812 64.546875 118.136719 67.386719 L 118.136719 67.390625 L 116.230469 78.910156 L 110.238281 78.910156 L 113.734375 57.921875 L 119.519531 57.921875 L 118.84375 61.925781 L 119.976562 61.925781 L 120.105469 61.636719 C 121.347656 58.867188 123.304688 57.628906 125.515625 57.628906 Z M 101.152344 57.640625 C 104.167969 57.640625 106.488281 58.589844 107.9375 60.355469 C 109.390625 62.125 110.007812 64.761719 109.421875 68.28125 L 109.210938 69.613281 L 94.585938 69.613281 L 94.46875 70.285156 C 94.234375 71.773438 94.457031 73.035156 95.183594 73.929688 C 95.914062 74.820312 97.097656 75.273438 98.5625 75.273438 C 100.382812 75.273438 101.976562 74.460938 102.917969 73.03125 L 108.3125 73.1875 C 106.648438 76.910156 102.902344 79.335938 97.59375 79.335938 C 94.246094 79.328125 91.8125 78.300781 90.328125 76.484375 C 88.84375 74.667969 88.273438 72.003906 88.851562 68.585938 C 89.949219 61.976562 94.757812 57.640625 101.152344 57.640625 Z M 58.269531 57.921875 L 64.261719 57.921875 L 60.769531 78.910156 L 54.777344 78.910156 Z M 10.628906 58.375 L 32.621094 58.375 L 32.359375 59.964844 L 9.496094 59.976562 Z M 100.507812 61.703125 C 98.003906 61.703125 95.816406 63.53125 95.265625 65.933594 L 95.125 66.539062 L 104.207031 66.539062 L 104.273438 66.121094 C 104.472656 64.886719 104.195312 63.761719 103.515625 62.957031 C 102.835938 62.15625 101.769531 61.703125 100.507812 61.703125 Z M 77.308594 62.121094 C 75.886719 62.121094 74.621094 62.757812 73.683594 63.851562 C 72.746094 64.945312 72.109375 66.484375 71.8125 68.347656 C 71.511719 70.1875 71.628906 71.746094 72.226562 72.90625 C 72.820312 74.066406 73.957031 74.769531 75.382812 74.769531 C 76.820312 74.769531 78.078125 74.109375 79.007812 72.996094 C 79.933594 71.886719 80.558594 70.339844 80.851562 68.503906 C 81.144531 66.664062 81.042969 65.121094 80.460938 63.96875 C 79.878906 62.8125 78.75 62.121094 77.308594 62.121094 Z M 100.507812 62.691406 C 101.539062 62.691406 102.289062 63.035156 102.761719 63.597656 C 103.164062 64.070312 103.328125 64.75 103.289062 65.550781 L 96.480469 65.550781 C 97.136719 63.914062 98.714844 62.691406 100.511719 62.691406 Z M 2.597656 62.761719 L 2.449219 62.960938 L 0 66.328125 L 32.390625 66.304688 L 32.976562 62.757812 Z M 77.308594 63.109375 C 78.464844 63.109375 79.140625 63.546875 79.578125 64.414062 C 80.015625 65.277344 80.148438 66.636719 79.875 68.347656 C 79.601562 70.054688 79.023438 71.433594 78.246094 72.363281 C 77.472656 73.292969 76.523438 73.78125 75.382812 73.78125 C 74.253906 73.78125 73.554688 73.332031 73.105469 72.457031 C 72.65625 71.578125 72.511719 70.214844 72.789062 68.503906 C 73.0625 66.773438 73.652344 65.40625 74.433594 64.492188 C 75.214844 63.582031 76.171875 63.109375 77.308594 63.109375 Z M 3.101562 63.746094 L 31.8125 63.746094 L 31.554688 65.316406 L 1.941406 65.339844 Z M 18.699219 68.128906 L 18.550781 68.351562 L 16.351562 71.710938 L 31.585938 71.699219 L 32.167969 68.128906 Z M 19.230469 69.117188 L 31.003906 69.117188 L 30.746094 70.710938 L 18.183594 70.722656 Z M 19.230469 69.117188 "/>
</g>
</svg>

<svg xmlns="http://www.w3.org/2000/svg" viewBox="0 0 128 128"><path fill="#00acd7" d="M62.772 47.678c-2.217 0-4.23 1.637-4.562 3.752v.006c-.31 2.12 1.41 3.911 3.637 3.911 2.225 0 4.257-1.649 4.54-3.774.28-2.12-1.398-3.894-3.615-3.894zm0 .989c1.717 0 2.841 1.211 2.634 2.774-.207 1.558-1.836 2.918-3.559 2.918-1.718 0-2.882-1.238-2.66-2.775.245-1.568 1.868-2.918 3.585-2.918zm-25.665.941-.07.413-4.96 29.88h8.082l1.947-11.773H53.75l1.14-6.758H43.242l.812-5.021h12.914l1.142-6.74zm30.95 0-.07.413-4.95 29.878h7.925l.443-2.76c.87 1.7 2.617 3.072 5.473 3.072 4.986 0 9.591-3.903 10.995-11.163-.427 3.302.096 6.105 1.69 8.059 1.705 2.087 4.479 3.21 8.03 3.215 5.95 0 10.376-2.914 12.007-7.438l.232-.642-7.366-.213-.145.267c-.702 1.297-2.081 1.987-3.759 1.987-1.268 0-2.109-.362-2.61-.978-.479-.587-.668-1.492-.508-2.703h14.613l.34-2.16v-.004c.616-3.706-.026-6.673-1.694-8.707-1.67-2.034-4.325-3.08-7.55-3.08-6.659 0-11.748 4.548-13.098 11.237.485-3.61-.004-6.42-1.318-8.292-1.398-1.99-3.615-2.946-6.038-2.946-2.815 0-4.894 1.275-6.264 2.832l1.615-9.874zm-30.113.988H56.94l-.806 4.765H43.212l-1.133 6.997h11.644l-.806 4.782H41.269l-1.947 11.773h-6.079zm30.953 0h5.99l-1.814 11.088h1.019l.142-.25c1.076-1.898 3.181-3.796 6.465-3.796 2.17 0 4.025.811 5.23 2.526 1.203 1.714 1.767 4.393 1.134 8.186-1.203 7.314-5.578 10.874-10.185 10.874-3.135 0-4.544-1.65-5.013-3.505l-.095-.372h-1.077l-.573 3.564h-5.918zm56.621 6.042c-2.02 0-3.883.974-5.258 2.827l.428-2.532h-7.792l-3.825 22.964h7.997l2.044-12.344c.42-2.394 2.352-3.966 4.59-3.966.824 0 2.02.15 2.53.342l.562.21L128 57l-.446-.11a8.81 8.81 0 0 0-2.032-.253h-.002zm-68.088.295-.07.413-3.75 22.551h7.998l3.82-22.964zm-47.316.454-.147.208-2.377 3.371 25.607-.013.585-3.566zm115.4.24h.005c.454.003.9.087 1.347.169l-.869 5.125c-.728-.177-1.56-.322-2.294-.322-2.71 0-5.07 1.949-5.566 4.788v.002l-1.906 11.52h-5.992l3.495-20.988h5.785l-.677 4.006h1.133l.13-.29c1.243-2.771 3.2-4.01 5.41-4.01zm-24.36.013c3.013 0 5.335.95 6.785 2.717 1.45 1.767 2.067 4.406 1.482 7.923v.002l-.209 1.332H94.585l-.116.67v.003c-.235 1.485-.012 2.748.716 3.641.728.894 1.913 1.344 3.377 1.344 1.82 0 3.415-.812 4.357-2.24l5.394.156c-1.664 3.723-5.409 6.146-10.72 6.146-3.347-.005-5.782-1.034-7.265-2.85-1.483-1.817-2.056-4.482-1.478-7.897v-.002h.002c1.096-6.61 5.904-10.945 12.302-10.945zm-42.886.281h5.992L60.77 78.91h-5.993zm-47.641.454H32.62l-.26 1.59-22.864.013zm89.882 3.327c-2.504 0-4.692 1.83-5.245 4.232l-.14.604h9.083l.067-.417c.197-1.236-.077-2.36-.758-3.163-.682-.803-1.747-1.256-3.007-1.256zm-23.2.418c-1.424 0-2.686.637-3.625 1.731-.938 1.095-1.575 2.634-1.871 4.497-.3 1.84-.183 3.4.413 4.56.595 1.16 1.73 1.862 3.158 1.862 1.435 0 2.694-.662 3.622-1.772.928-1.11 1.552-2.657 1.845-4.496.293-1.836.193-3.382-.39-4.535-.582-1.153-1.71-1.847-3.153-1.847zm23.2.57c1.029 0 1.78.347 2.254.907.402.473.564 1.154.525 1.953H96.48c.656-1.635 2.236-2.86 4.03-2.86zm-97.91.07-.148.202L0 66.329l32.39-.023.587-3.547Zm74.71.348c1.154 0 1.833.44 2.27 1.305.438.865.569 2.223.296 3.935-.272 1.707-.85 3.087-1.627 4.015-.776.929-1.724 1.419-2.864 1.419-1.132 0-1.828-.449-2.279-1.326-.45-.877-.595-2.242-.316-3.952v-.002c.275-1.729.862-3.095 1.644-4.008.782-.913 1.737-1.386 2.875-1.386zm-74.206.64h28.708l-.258 1.57-29.61.023zm15.596 4.382-.147.223-2.2 3.356 15.234-.01.582-3.57zm.533.988h11.773l-.26 1.594-12.563.01z"/></svg>
